src/blocks/social/ic-facebook.svg

<?xml version="1.0" encoding="UTF-8"?>
<svg width="30px" height="30px" viewBox="0 0 30 30" version="1.1" xmlns="http://www.w3.org/2000/svg" xmlns:xlink="http://www.w3.org/1999/xlink">
    <!-- Generator: Sketch 41.2 (35397) - http://www.bohemiancoding.com/sketch -->
    <title>ic-Facebook</title>
    <desc>Created with Sketch.</desc>
    <defs></defs>
    <g id="Symbols" stroke="none" stroke-width="1" fill="none" fill-rule="evenodd">
        <g id="ic-Facebook">
            <g>
                <path d="M0,15 C0,6.71572834 6.71572834,0 15,0 C23.2842717,0 30,6.71572834 30,15 C30,23.2842717 23.2842717,30 15,30 C6.71572834,30 0,23.2842717 0,15 Z" id="back" fill="#3B5998"></path>
                <path d="M16.0634719,23.3196729 L16.0634719,15.158881 L18.3162074,15.158881 L18.6147435,12.3466269 L16.0634719,12.3466269 L16.0672993,10.9390667 C16.0672993,10.2055875 16.1369896,9.81257258 17.1904776,9.81257258 L18.5987961,9.81257258 L18.5987961,7 L16.3457416,7 C13.6394609,7 12.6869203,8.3642458 12.6869203,10.6584782 L12.6869203,12.3469454 L11,12.3469454 L11,15.1591995 L12.6869203,15.1591995 L12.6869203,23.3196729 L16.0634719,23.3196729 Z" id="Shape" fill="#FFFFFF"></path>
            </g>
        </g>
    </g>
</svg>

<svg width="24" height="24" viewBox="0 0 24 24" xmlns="http://www.w3.org/2000/svg"><title>92242F1D-56F2-4ED6-8E19-B75490C679CC</title><g fill="none" fill-rule="evenodd"><path d="M0 15C0 6.716 6.716 0 15 0c8.284 0 15 6.716 15 15 0 8.284-6.716 15-15 15-8.284 0-15-6.716-15-15z" fill="#3B5998"/><path d="M16.063 23.32v-8.161h2.253l.299-2.812h-2.552l.004-1.408c0-.733.07-1.126 1.123-1.126H18.6V7h-2.253c-2.707 0-3.66 1.364-3.66 3.658v1.689H11v2.812h1.687v8.16h3.376z" fill="#FFF"/></g></svg>
